X:1
T:James Gibb editions
T:O salutaris - Werner
T:#
%%score [ 1 2 3 4 ]
L:1/8
Q:1/4=96
M:3/4
K:Ab
V:1 treble nm="Soprano" snm="S"
V:2 treble nm="Alto" snm="A"
V:3 treble-8 nm="Tenor" snm="T"
V:4 bass nm="Bass" snm="B"
V:1
"^andante""^Anthony Werner\n(1817-66)" E2 F2"^O salutaris hostia" E2 | A4 E2 | F4 F2 | E6 | %4
w: ~O sa- lu-|ta- ris|ho- sti-|a,|
w: ~U- ni tri-|no- que|Do- mi-|no|
 E2 A2 c2 | B4 G2 | (A2 G2) F2 | E4 z2 | E2 E2 E2 | (E2 A2) c2 | d4 c2 | B6 | e2 e2 e2 | %13
w: Quae coe- li|pan- dis|o\- * sti-|um:|Bel- la pre-|munt * ho-|sti- li-|a,|Da ro- bur,|
w: Sit sem- pi-|ter- na|glo\- * ri-|a,|Qui vi- tam|si\- * ne|ter- mi-|no|No- bis do-|
 (e2 c2) A2 | c4 B2 | A4 z2 :| A6 | A6 |] %18
w: fer * au-|xi- li-|um.|A-|men.|
w: net * in|pa- tri-|a.|||
V:2
 C2 D2 C2 | C4 C2 | D4 D2 | C6 | C2 C2 E2 | E4 D2 | (C2 =D2) D2 | E4 z2 | D2 D2 D2 | C4 E2 | %10
w: ~O sa- lu-|ta- ris|ho- sti-|a,|Quae coe- li|pan- dis|o\- * sti-|um:|Bel- la pre-|munt ho-|
w: ~U- ni tri-|no- que|Do- mi-|no|Sit sem- pi-|ter- na|glo\- * ri-|a,|Que vi- tam|si- ne|
 E4 E2 | E6 | G2 A2 B2 | (A2 G2) F2 | A2 F2 G2 | E4 z2 :| (E4 D2) | C6 |] %18
w: sti- li-|a,|Da ro- bur,|fer * au-|xi- * li-|um.|A\- *|men.|
w: ter- mi-|no|No- bis do-|net * in|pa- * tri-|a.|||
V:3
 A2 A2 A2 | (A2 E2) A2 | (A2 F2) A2 | A6 | A2 E2 A2 | G4 B2 | (A2 B2) A2 | G4 z2 | G2 A2 B2 | %9
w: ~O sa- lu-|ta\- * ris|ho\- * sti-|a,|Quae coe- li|pan- dis|o\- * sti-|um:|Bel- la pre-|
w: ~U- ni tri-|no\- * que|Do\- * mi-|no|Sit sem- pi-|ter- na|glo\- * ri-|a,|Qui vi- tam|
 A4 A2 | B4 A2 | G6 | d2 d2 d2 | c4 c2 | e4 d2 | c4 z2 :| A6 | A6 |] %18
w: munt ho-|sti- li-|a,|Da ro- bur,|fer au-|xi- li-|um.|A-|men.|
w: si- ne|ter- mi-|no|No- bis do-|net in|pa- tri-|a.|||
V:4
 A,,2 A,,2 A,,2 | A,,4 A,,2 | D,4 D,2 | A,,6 | A,,2 A,,2 A,,2 | E,4 =E,2 | (F,2 B,,2) B,,2 | %7
w: ~O sa- lu-|ta- ris|ho- sti-|a,|Quae coe- li|pan- dis|o\- * sti-|
w: ~U- ni tri-|no- que|Do- mi-|no|Sit sem- pi-|ter- na|glo\- * ri-|
 E,4 z2 | E,2 F,2 G,2 | A,4 A,2 | G,4 A,2 | E,6 | E,2 F,2 G,2 | (A,2 E,2) F,2 | E,4 E,2 | A,4 z2 :| %16
w: um:|Bel- la pre-|munt ho-|sti- li-|a,|Da ro bur,|fer * au-|xi- li-|um.|
w: a,|Qui vi- tam|si- ne|ter- mi-|no|No- bis do-|net * in|pa- tri-|a.|
 F,6 | A,,6 |] %18
w: A-|men.|
w: ||

